src/cmd/sc_starshapes.star24.svg

<?xml version="1.0" encoding="UTF-8" standalone="no"?>
<svg
   xmlns:dc="http://purl.org/dc/elements/1.1/"
   xmlns:cc="http://creativecommons.org/ns#"
   xmlns:rdf="http://www.w3.org/1999/02/22-rdf-syntax-ns#"
   xmlns:svg="http://www.w3.org/2000/svg"
   xmlns="http://www.w3.org/2000/svg"
   xmlns:sodipodi="http://sodipodi.sourceforge.net/DTD/sodipodi-0.dtd"
   xmlns:inkscape="http://www.inkscape.org/namespaces/inkscape"
   viewBox="0 0 16 16"
   version="1.1"
   id="svg4"
   sodipodi:docname="sc_starshapes.star24.svg"
   inkscape:version="0.92.4 (5da689c313, 2019-01-14)"
   inkscape:export-filename="/home/jupiter007/Libreoffice yaru theme fullcolor/build/cmd/sc_starshapes.star24.png"
   inkscape:export-xdpi="96"
   inkscape:export-ydpi="96"><metadata
   id="metadata10">
  <rdf:RDF>
    <cc:Work
       rdf:about="">
      <dc:format>image/svg+xml</dc:format>
      <dc:type
         rdf:resource="http://purl.org/dc/dcmitype/StillImage" />
    </cc:Work>
  </rdf:RDF>
</metadata>
<defs
   id="defs8" />
<sodipodi:namedview
   pagecolor="#ffffff"
   bordercolor="#666666"
   borderopacity="1"
   objecttolerance="10"
   gridtolerance="10"
   guidetolerance="10"
   inkscape:pageopacity="0"
   inkscape:pageshadow="2"
   inkscape:window-width="1920"
   inkscape:window-height="1011"
   id="namedview6"
   showgrid="true"
   inkscape:zoom="41.7193"
   inkscape:cx="16.00848"
   inkscape:cy="6.150488"
   inkscape:window-x="0"
   inkscape:window-y="32"
   inkscape:window-maximized="1"
   inkscape:current-layer="svg4">
  <inkscape:grid
     type="xygrid"
     id="grid835" />
</sodipodi:namedview>

/&gt;<path
   style="fill:#000000;stroke:#000000;opacity:0.6;stroke-width:2;stroke-miterlimit:4;stroke-dasharray:none;stroke-linejoin:round"
   id="path825"
   d="M 8,2 7.59375,5.03125 6.4375,2.21875 l 0.40625,3 L 5,2.78125 6.15625,5.59375 3.75,3.75 5.59375,6.15625 2.78125,5 l 2.4375,1.84375 -3,-0.40625 2.8125,1.15625 L 2,8 l 3.03125,0.40625 -2.8125,1.125 3,-0.375 L 2.78125,11 5.59375,9.8125 3.75,12.25 6.15625,10.375 5,13.21875 6.84375,10.75 c 0,0 1.3144531,-1.7430895 1.3144531,-1.75 H 12.4375 L 10.96875,8.40625 14,8 10.96875,7.59375 13.78125,6.4375 10.75,6.84375 13.1875,5 10.375,6.15625 12.25,3.75 9.8125,5.59375 11,2.78125 l -1.84375,2.4375 0.375,-3 -1.125,2.8125 z" />
<path
   d="M 8,2 7.59375,5.03125 6.4375,2.21875 l 0.40625,3 L 5,2.78125 6.15625,5.59375 3.75,3.75 5.59375,6.15625 2.78125,5 l 2.4375,1.84375 -3,-0.40625 2.8125,1.15625 L 2,8 l 3.03125,0.40625 -2.8125,1.125 3,-0.375 L 2.78125,11 5.59375,9.8125 3.75,12.25 6.15625,10.375 5,13.21875 6.84375,10.75 c 0,0 1.3144531,-1.7430895 1.3144531,-1.75 H 12.4375 L 10.96875,8.40625 14,8 10.96875,7.59375 13.78125,6.4375 10.75,6.84375 13.1875,5 10.375,6.15625 12.25,3.75 9.8125,5.59375 11,2.78125 l -1.84375,2.4375 0.375,-3 -1.125,2.8125 z"
   id="path823"
   style="fill:#ffffff" />
<g
   aria-label="24"
   style="font-style:normal;font-variant:normal;font-weight:bold;font-stretch:normal;font-size:10.66666698px;line-height:1.25;font-family:sans-serif;-inkscape-font-specification:'sans-serif, Bold';font-variant-ligatures:normal;font-variant-caps:normal;font-variant-numeric:normal;font-feature-settings:normal;text-align:start;letter-spacing:0px;word-spacing:0px;writing-mode:lr-tb;text-anchor:start;opacity:0.6;fill:#000000;fill-opacity:1;stroke:#000000;stroke-width:2;stroke-linejoin:round;stroke-miterlimit:4;stroke-dasharray:none"
   id="text833">
  <path
     d="M 6.5429687,13.894531 H 9.109375 V 15 H 4.8710937 V 13.894531 L 7,12.015625 Q 7.2851562,11.757813 7.421875,11.511719 7.5585937,11.265625 7.5585937,11 q 0,-0.410156 -0.2773437,-0.660156 -0.2734375,-0.25 -0.7304688,-0.25 -0.3515625,0 -0.7695312,0.152344 Q 5.3632812,10.390625 4.8867187,10.6875 V 9.40625 Q 5.3945312,9.2382813 5.890625,9.1523438 6.3867187,9.0625 6.8632812,9.0625 q 1.046875,0 1.6250001,0.4609375 0.5820312,0.4609375 0.5820312,1.2851565 0,0.476562 -0.2460937,0.890625 -0.2460938,0.410156 -1.0351563,1.101562 z"
     style="font-style:normal;font-variant:normal;font-weight:bold;font-stretch:normal;font-size:8px;font-family:sans-serif;-inkscape-font-specification:'sans-serif, Bold';font-variant-ligatures:normal;font-variant-caps:normal;font-variant-numeric:normal;font-feature-settings:normal;text-align:start;writing-mode:lr-tb;text-anchor:start;fill:#000000;stroke:#000000;stroke-width:2;stroke-linejoin:round;stroke-miterlimit:4;stroke-dasharray:none"
     id="path818" />
  <path
     d="m 12.746094,10.40625 -1.648438,2.441406 h 1.648438 z m -0.25,-1.2382812 h 1.671875 V 12.847656 H 15 V 13.9375 H 14.167969 V 15 h -1.421875 v -1.0625 h -2.585938 v -1.289062 z"
     style="font-style:normal;font-variant:normal;font-weight:bold;font-stretch:normal;font-size:8px;font-family:sans-serif;-inkscape-font-specification:'sans-serif, Bold';font-variant-ligatures:normal;font-variant-caps:normal;font-variant-numeric:normal;font-feature-settings:normal;text-align:start;writing-mode:lr-tb;text-anchor:start;fill:#000000;stroke:#000000;stroke-width:2;stroke-linejoin:round;stroke-miterlimit:4;stroke-dasharray:none"
     id="path820" />
</g>
<g
   aria-label="24"
   style="font-style:normal;font-variant:normal;font-weight:bold;font-stretch:normal;font-size:10.66666698px;line-height:1.25;font-family:sans-serif;-inkscape-font-specification:'sans-serif, Bold';font-variant-ligatures:normal;font-variant-caps:normal;font-variant-numeric:normal;font-feature-settings:normal;text-align:start;letter-spacing:0px;word-spacing:0px;writing-mode:lr-tb;text-anchor:start;fill:#ffffff;fill-opacity:1;stroke:none"
   id="text829">
  <path
     d="M 6.5429687,13.894531 H 9.109375 V 15 H 4.8710937 V 13.894531 L 7,12.015625 Q 7.2851562,11.757813 7.421875,11.511719 7.5585937,11.265625 7.5585937,11 q 0,-0.410156 -0.2773437,-0.660156 -0.2734375,-0.25 -0.7304688,-0.25 -0.3515625,0 -0.7695312,0.152344 Q 5.3632812,10.390625 4.8867187,10.6875 V 9.40625 Q 5.3945312,9.2382813 5.890625,9.1523438 6.3867187,9.0625 6.8632812,9.0625 q 1.046875,0 1.6250001,0.4609375 0.5820312,0.4609375 0.5820312,1.2851565 0,0.476562 -0.2460937,0.890625 -0.2460938,0.410156 -1.0351563,1.101562 z"
     style="font-style:normal;font-variant:normal;font-weight:bold;font-stretch:normal;font-size:8px;font-family:sans-serif;-inkscape-font-specification:'sans-serif, Bold';font-variant-ligatures:normal;font-variant-caps:normal;font-variant-numeric:normal;font-feature-settings:normal;text-align:start;writing-mode:lr-tb;text-anchor:start;fill:#ffffff"
     id="path824" />
  <path
     d="m 12.746094,10.40625 -1.648438,2.441406 h 1.648438 z m -0.25,-1.2382812 h 1.671875 V 12.847656 H 15 V 13.9375 H 14.167969 V 15 h -1.421875 v -1.0625 h -2.585938 v -1.289062 z"
     style="font-style:normal;font-variant:normal;font-weight:bold;font-stretch:normal;font-size:8px;font-family:sans-serif;-inkscape-font-specification:'sans-serif, Bold';font-variant-ligatures:normal;font-variant-caps:normal;font-variant-numeric:normal;font-feature-settings:normal;text-align:start;writing-mode:lr-tb;text-anchor:start;fill:#ffffff"
     id="path826" />
</g>
</svg>

<svg viewBox="0 0 16 16" xmlns="http://www.w3.org/2000/svg">/&gt;<path d="m8 2-.40625 3.03125-1.15625-2.8125.40625 3-1.84375-2.4375 1.15625 2.8125-2.40625-1.84375 1.84375 2.40625-2.8125-1.15625 2.4375 1.84375-3-.40625 2.8125 1.15625-3.03125.40625 3.03125.40625-2.8125 1.125 3-.375-2.4375 1.84375 2.8125-1.1875-1.84375 2.4375 2.40625-1.875-1.15625 2.84375 1.84375-2.46875s1.3144531-1.7430895 1.3144531-1.75h4.2792969l-1.46875-.59375 3.03125-.40625-3.03125-.40625 2.8125-1.15625-3.03125.40625 2.4375-1.84375-2.8125 1.15625 1.875-2.40625-2.4375 1.84375 1.1875-2.8125-1.84375 2.4375.375-3-1.125 2.8125zm1.1875 8c-.18366 0-.38488.03075-.59375.09375s-.3854.1474-.53125.25l.1875.5c.11164-.0865.26824-.15975.4375-.21875.16925-.061.32714-.09375.5-.09375.17285 0 .34271.05925.46875.15625.1278.0972.1875.22625.1875.40625 0 .1801-.053.34275-.125.46875-.07022.1242-.1745.27435-.34375.46875l-1.25 1.4375.03125.53125h2.25l.03125-.5h-1.625l.9375-1c.26288-.2863.4635-.53155.5625-.71875.10085-.1891.15625-.3892.15625-.625v-.0625c-.0036-.1962-.053-.3524-.125-.5-.07022-.1477-.16241-.26075-.28125-.34375-.11704-.0829-.23636-.1475-.375-.1875-.13865-.039-.31454-.0625-.5-.0625zm3.59375.0625-1.59375 2.53125v.46875h1.71875v.9375h.59375v-.9375h.46875l.03125-.46875h-.5v-2.53125zm.125.71875v1.8125h-1.09375z" fill="#232629"/></svg>
